public/svg/supabase.svg

<svg width="109" height="113" viewBox="0 0 109 113" fill="none" xmlns="http://www.w3.org/2000/svg">
<path d="M63.7076 110.284C60.8481 113.885 55.0502 111.912 54.9813 107.314L53.9738 40.0627L99.1935 40.0627C107.384 40.0627 111.952 49.5228 106.859 55.9374L63.7076 110.284Z" fill="url(#paint0_linear)"/>
<path d="M63.7076 110.284C60.8481 113.885 55.0502 111.912 54.9813 107.314L53.9738 40.0627L99.1935 40.0627C107.384 40.0627 111.952 49.5228 106.859 55.9374L63.7076 110.284Z" fill="url(#paint1_linear)" fill-opacity="0.2"/>
<path d="M45.317 2.07103C48.1765 -1.53037 53.9745 0.442937 54.0434 5.041L54.4849 72.2922H9.83113C1.64038 72.2922 -2.92775 62.8321 2.1655 56.4175L45.317 2.07103Z" fill="#3ECF8E"/>
<defs>
<linearGradient id="paint0_linear" x1="53.9738" y1="54.974" x2="94.1635" y2="71.8295" gradientUnits="userSpaceOnUse">
<stop stop-color="#249361"/>
<stop offset="1" stop-color="#3ECF8E"/>
</linearGradient>
<linearGradient id="paint1_linear" x1="36.1558" y1="30.578" x2="54.4844" y2="65.0806" gradientUnits="userSpaceOnUse">
<stop/>
<stop offset="1" stop-opacity="0"/>
</linearGradient>
</defs>
</svg>

<svg xmlns="http://www.w3.org/2000/svg" xmlns:xlink="http://www.w3.org/1999/xlink" width="109" height="113" fill="none" xmlns:v="https://vecta.io/nano"><use xlink:href="#C" fill="url(#A)"/><use xlink:href="#C" fill="url(#B)" fill-opacity=".2"/><path d="M45.317 2.071c2.859-3.601 8.657-1.628 8.726 2.97l.442 67.251H9.831c-8.191 0-12.759-9.46-7.666-15.875L45.317 2.071z" fill="#3ecf8e"/><defs><linearGradient id="A" x1="53.974" y1="54.974" x2="94.164" y2="71.83" gradientUnits="userSpaceOnUse"><stop stop-color="#249361"/><stop offset="1" stop-color="#3ecf8e"/></linearGradient><linearGradient id="B" x1="36.156" y1="30.578" x2="54.484" y2="65.081" gradientUnits="userSpaceOnUse"><stop/><stop offset="1" stop-opacity="0"/></linearGradient><path id="C" d="M63.708 110.284c-2.859 3.601-8.657 1.628-8.726-2.97l-1.008-67.251h45.22c8.191 0 12.758 9.46 7.665 15.875l-43.151 54.347z"/></defs></svg>
